;FLAVOR:Marlin
;TIME:1279
;Filament used: 0.817282m
;Layer height: 0.1
;MINX:-23.439
;MINY:-21.923
;MINZ:0.3
;MAXX:23.448
;MAXY:21.923
;MAXZ:4.4
;TARGET_MACHINE.NAME:Unknown
;POSTPROCESSED
;Generated with Cura_SteamEngine 5.5.0
;
;

M82 ;absolute extrusion mode
G21
G90
M82
M107 T0
M140 S60
M104 S210 T0
M190 S60
M109 S210 T0
G28
G1 F3000 Z1
G1 X-150 Y0 Z0.4
G92 E0
G3 X0 Y-130 I150 Z0.3 E30 F2000
G92 E0

G92 E0
G92 E0
G1 F2400 E-0.6
;LAYER_COUNT:39
;LAYER:0
M107
M204 S8000
M205 X100 Y100
G1 F3000 Z0.6
G0 X1.127 Y-21.023 Z0.6
M205 X10 Y10
;TYPE:SKIRT
G1 F3000 Z0.3
G1 F2400 E0
G1 F1500 X2.67 Y-21.648 E0.06229
G1 X5.256 Y-21.887 E0.15947
G1 X6.137 Y-21.917 E0.19245
G1 X7.029 Y-21.923 E0.22583
G1 X7.981 Y-21.898 E0.26146
G1 X9.696 Y-21.716 E0.32599
G1 X10.881 Y-21.509 E0.371
G1 X11.808 Y-21.329 E0.40634
G1 X12.599 Y-21.137 E0.4368
G1 X13.583 Y-20.869 E0.47496
G1 X14.514 Y-20.58 E0.51143
G1 X15.604 Y-20.19 E0.55475
G1 X16.595 Y-19.783 E0.59483
G1 X17.799 Y-19.212 E0.6447
G1 X18.974 Y-18.571 E0.69478
G1 X19.73 Y-18.096 E0.72819
G1 X21.462 Y-16.864 E0.80772
G1 X22.972 Y-14.807 E0.9032
G1 X23.448 Y-12.716 E0.98344
G1 X23.394 Y6.765 E1.71237
G1 X23.38 Y8.902 E1.79234
G1 X23.392 Y11.282 E1.88139
G1 X22.916 Y13.167 E1.95414
G1 X22.102 Y14.627 E2.01669
G1 X20.654 Y16.209 E2.09693
G1 X18.803 Y17.163 E2.17485
G1 X18.217 Y17.303 E2.19739
G1 X17.217 Y18.462 E2.25467
G1 X15.362 Y19.421 E2.33281
G1 X13.754 Y19.98 E2.39651
G1 X12.894 Y20.237 E2.43009
G1 X11.537 Y20.608 E2.48273
G1 X10.197 Y20.917 E2.53419
G1 X8.741 Y21.204 E2.58972
G1 X7.353 Y21.4 E2.64217
G1 X5.958 Y21.552 E2.69467
G1 X5.161 Y21.616 E2.72459
G1 X4.564 Y21.643 E2.74695
G1 X3.887 Y21.716 E2.77243
G1 X1.751 Y21.873 E2.85257
G1 X0.695 Y21.908 E2.89211
G1 X-.374 Y21.923 E2.93211
G1 X-1.443 Y21.917 E2.97211
G1 X-2.459 Y21.884 E3.01015
G1 X-4.727 Y21.752 E3.09515
G1 X-5.813 Y21.643 E3.13599
G1 X-7.981 Y21.367 E3.21777
G1 X-9.056 Y21.202 E3.25846
G1 X-10.171 Y21.006 E3.30082
G1 X-11.371 Y20.773 E3.34656
G1 X-13.112 Y20.358 E3.41353
G1 X-15.297 Y19.496 E3.50142
G1 X-16.66 Y18.695 E3.56058
G1 X-17.444 Y17.795 E3.60524
G1 X-19.329 Y17.135 E3.67997
G1 X-21.233 Y15.721 E3.76871
G1 X-22.541 Y13.623 E3.86122
G1 X-22.818 Y12.82 E3.893
G1 X-23.033 Y10.825 E3.96808
G1 X-23.027 Y10.193 E3.99173
G1 X-23.356 Y8.994 E4.03826
G1 X-23.346 Y3.625 E4.23915
G1 X-23.154 Y3.096 E4.26021
G1 X-23.115 Y-3.104 E4.4922
G1 X-23.239 Y-3.545 E4.50934
G1 X-23.437 Y-5.075 E4.56707
G1 X-23.439 Y-8.347 E4.6895
G1 X-23.292 Y-9.842 E4.74571
G1 X-23.237 Y-10.085 E4.75503
G1 X-23.295 Y-12.147 E4.83222
G1 X-22.744 Y-14.618 E4.92695
G1 X-21.227 Y-16.659 E5.0221
G1 X-19.288 Y-18.193 E5.11461
G1 X-17.915 Y-19.011 E5.17442
G1 X-16.317 Y-19.768 E5.24058
G1 X-15.438 Y-20.115 E5.27594
G1 X-14.548 Y-20.432 E5.31129
G1 X-13.639 Y-20.714 E5.3469
G1 X-12.721 Y-20.966 E5.38252
G1 X-11.829 Y-21.174 E5.41679
G1 X-10.993 Y-21.34 E5.44869
G1 X-10.166 Y-21.487 E5.48011
G1 X-8.431 Y-21.759 E5.54583
G1 X-7.106 Y-21.875 E5.5956
G1 X-6.415 Y-21.895 E5.62146
G1 X-5.653 Y-21.898 E5.64997
G1 X-4.108 Y-21.806 E5.70789
G1 X-2.484 Y-21.64 E5.76897
G1 X-.98 Y-21.038 E5.82959
G1 X1.127 Y-21.023 E5.90843
M205 X100 Y100
G0 F3000 X1.224 Y-20.723
M205 X10 Y10
G1 F1500 X1.353 Y-20.791 E5.91388
G1 X2.741 Y-21.353 E5.96992
G1 X5.266 Y-21.587 E6.0648
G1 X6.139 Y-21.617 E6.09748
G1 X7.021 Y-21.623 E6.13049
G1 X7.973 Y-21.598 E6.16612
G1 X9.644 Y-21.42 E6.229
G1 X10.824 Y-21.214 E6.27382
G1 X11.737 Y-21.037 E6.30862
G1 X12.528 Y-20.845 E6.33908
G1 X13.494 Y-20.582 E6.37654
G1 X14.425 Y-20.293 E6.41301
G1 X15.49 Y-19.912 E6.45534
G1 X16.481 Y-19.505 E6.49542
G1 X17.655 Y-18.949 E6.54403
G1 X18.814 Y-18.317 E6.59342
G1 X19.57 Y-17.842 E6.62683
G1 X21.247 Y-16.649 E6.70384
G1 X22.693 Y-14.68 E6.79525
G1 X23.148 Y-12.68 E6.872
G1 X23.094 Y6.763 E7.59951
G1 X23.08 Y8.9 E7.67947
G1 X23.092 Y11.244 E7.76718
G1 X22.634 Y13.056 E7.83711
G1 X21.856 Y14.452 E7.89691
G1 X20.471 Y15.966 E7.97369
G1 X18.698 Y16.879 E8.04831
G1 X18.054 Y17.033 E8.07309
G1 X17.029 Y18.221 E8.1318
G1 X15.224 Y19.154 E8.20783
G1 X13.668 Y19.693 E8.26944
G1 X12.815 Y19.948 E8.30276
G1 X11.47 Y20.316 E8.35493
G1 X10.139 Y20.623 E8.40604
G1 X8.699 Y20.907 E8.46096
G1 X7.321 Y21.102 E8.51304
G1 X5.934 Y21.253 E8.56524
G1 X5.147 Y21.316 E8.59478
G1 X4.55 Y21.343 E8.61715
G1 X3.855 Y21.418 E8.6433
G1 X1.741 Y21.573 E8.72262
G1 X0.691 Y21.608 E8.76193
G1 X-.372 Y21.623 E8.8017
G1 X-1.433 Y21.617 E8.84141
G1 X-2.441 Y21.585 E8.87914
G1 X-4.697 Y21.453 E8.9637
G1 X-5.775 Y21.345 E9.00424
G1 X-7.935 Y21.07 E9.08571
G1 X-9.01 Y20.905 E9.12641
G1 X-10.114 Y20.711 E9.16835
G1 X-11.301 Y20.481 E9.21359
G1 X-13.042 Y20.066 E9.28056
G1 X-15.145 Y19.237 E9.36514
G1 X-16.467 Y18.46 E9.42252
G1 X-17.283 Y17.523 E9.46901
G1 X-17.403 Y17.496 E9.47361
G1 X-19.187 Y16.867 E9.54439
G1 X-21.008 Y15.514 E9.62928
G1 X-22.268 Y13.493 E9.7184
G1 X-22.524 Y12.751 E9.74776
G1 X-22.733 Y10.828 E9.82014
G1 X-22.727 Y10.155 E9.84533
G1 X-23.056 Y8.955 E9.89188
G1 X-23.046 Y3.678 E10.08934
G1 X-22.854 Y3.149 E10.11039
G1 X-22.815 Y-3.145 E10.34591
G1 X-22.942 Y-3.584 E10.36301
G1 X-23.137 Y-5.075 E10.41927
G1 X-23.14 Y-8.318 E10.54062
G1 X-22.999 Y-9.776 E10.59543
G1 X-22.936 Y-10.055 E10.60613
G1 X-22.994 Y-12.118 E10.68335
G1 X-22.465 Y-14.49 E10.77429
G1 X-21.009 Y-16.45 E10.86565
G1 X-19.134 Y-17.935 E10.95514
G1 X-17.761 Y-18.753 E11.01494
G1 X-16.207 Y-19.489 E11.07928
G1 X-15.337 Y-19.832 E11.11427
G1 X-14.447 Y-20.149 E11.14963
G1 X-13.56 Y-20.425 E11.18438
G1 X-12.653 Y-20.674 E11.21958
G1 X-11.771 Y-20.88 E11.25347
G1 X-10.94 Y-21.045 E11.28517
G1 X-10.119 Y-21.191 E11.31637
G1 X-8.405 Y-21.46 E11.38129
G1 X-7.097 Y-21.575 E11.43042
G1 X-6.414 Y-21.595 E11.45599
G1 X-5.652 Y-21.598 E11.4845
G1 X-4.138 Y-21.508 E11.54125
G1 X-2.559 Y-21.347 E11.60064
G1 X-1.214 Y-20.81 E11.65483
G1 X-1.079 Y-20.738 E11.66056
G1 X1.224 Y-20.723 E11.74673
M205 X100 Y100
G0 F3000 X1.299 Y-20.422
M205 X10 Y10
G1 F1500 X1.466 Y-20.513 E11.75385
G1 X2.812 Y-21.058 E11.80818
G1 X5.276 Y-21.287 E11.90078
G1 X6.141 Y-21.317 E11.93316
G1 X7.013 Y-21.323 E11.96579
G1 X7.965 Y-21.298 E12.00143
G1 X9.592 Y-21.124 E12.06265
G1 X10.767 Y-20.919 E12.10728
G1 X11.666 Y-20.745 E12.14154
G1 X12.457 Y-20.553 E12.172
G1 X13.405 Y-20.295 E12.20876
G1 X14.336 Y-20.006 E12.24524
G1 X15.376 Y-19.634 E12.28657
G1 X16.367 Y-19.227 E12.32665
G1 X17.511 Y-18.686 E12.374
G1 X18.654 Y-18.063 E12.42271
G1 X19.41 Y-17.588 E12.45612
G1 X21.034 Y-16.433 E12.53069
G1 X22.413 Y-14.554 E12.6179
G1 X22.848 Y-12.644 E12.6912
G1 X22.794 Y6.761 E13.41729
G1 X22.78 Y8.898 E13.49725
G1 X22.792 Y11.207 E13.58365
G1 X22.353 Y12.945 E13.65072
G1 X21.61 Y14.277 E13.70779
G1 X20.288 Y15.723 E13.7811
G1 X18.594 Y16.595 E13.85239
G1 X17.891 Y16.763 E13.87944
G1 X16.841 Y17.98 E13.93958
G1 X15.086 Y18.887 E14.0135
G1 X13.57 Y19.409 E14.0735
G1 X12.736 Y19.659 E14.10607
G1 X11.403 Y20.024 E14.15779
G1 X10.081 Y20.329 E14.20855
G1 X8.657 Y20.61 E14.26286
G1 X7.289 Y20.804 E14.31456
G1 X5.91 Y20.954 E14.36647
G1 X5.133 Y21.016 E14.39563
G1 X4.536 Y21.043 E14.41799
G1 X3.823 Y21.12 E14.44483
G1 X1.731 Y21.273 E14.52331
G1 X0.687 Y21.308 E14.5624
G1 X-.37 Y21.323 E14.60196
G1 X-1.424 Y21.317 E14.64139
G1 X-2.424 Y21.286 E14.67883
G1 X-4.667 Y21.155 E14.7629
G1 X-5.739 Y21.047 E14.80322
G1 X-6.795 Y20.919 E14.84302
G1 X-7.889 Y20.774 E14.88431
G1 X-8.958 Y20.609 E14.92478
G1 X-10.057 Y20.417 E14.96653
G1 X-11.231 Y20.189 E15.01128
G1 X-12.972 Y19.774 E15.07825
G1 X-14.993 Y18.978 E15.15952
G1 X-16.274 Y18.225 E15.21512
G1 X-17.125 Y17.247 E15.26363
G1 X-17.303 Y17.213 E15.27041
G1 X-19.044 Y16.599 E15.33949
G1 X-20.783 Y15.307 E15.42055
G1 X-21.995 Y13.363 E15.50627
G1 X-22.23 Y12.682 E15.53323
G1 X-22.433 Y10.831 E15.6029
G1 X-22.426 Y10.102 E15.63018
G1 X-22.453 Y10.03 E15.63306
G1 X-22.756 Y8.913 E15.67636
G1 X-22.746 Y3.731 E15.87026
G1 X-22.554 Y3.202 E15.89132
G1 X-22.515 Y-3.187 E16.13038
G1 X-22.645 Y-3.623 E16.14741
G1 X-22.837 Y-5.075 E16.20221
G1 X-22.841 Y-8.29 E16.32251
G1 X-22.706 Y-9.71 E16.37588
G1 X-22.635 Y-10.025 E16.38796
G1 X-22.693 Y-12.089 E16.46522
G1 X-22.186 Y-14.362 E16.55237
G1 X-20.79 Y-16.241 E16.63995
G1 X-18.98 Y-17.677 E16.72641
G1 X-17.607 Y-18.495 E16.78621
G1 X-16.097 Y-19.21 E16.84872
G1 X-15.236 Y-19.549 E16.88334
G1 X-14.346 Y-19.866 E16.9187
G1 X-13.481 Y-20.136 E16.9526
G1 X-12.585 Y-20.382 E16.98737
G1 X-11.712 Y-20.586 E17.02091
G1 X-10.888 Y-20.75 E17.05235
G1 X-10.072 Y-20.895 E17.08336
G1 X-8.379 Y-21.161 E17.14749
G1 X-7.088 Y-21.275 E17.19598
G1 X-6.413 Y-21.295 E17.22125
G1 X-5.651 Y-21.298 E17.24976
G1 X-4.169 Y-21.21 E17.30531
G1 X-2.634 Y-21.053 E17.36305
G1 X-1.325 Y-20.531 E17.41578
G1 X-1.158 Y-20.438 E17.42293
G1 X1.299 Y-20.422 E17.51487
M205 X100 Y100
G0 F3000 X1.376 Y-20.122
M205 X10 Y10
G1 F1500 X1.579 Y-20.235 E17.52356
G1 X2.883 Y-20.763 E17.5762
G1 X5.287 Y-20.987 E17.66654
G1 X6.143 Y-21.017 E17.69859
G1 X7.005 Y-21.023 E17.73085
G1 X7.957 Y-20.998 E17.76648
G1 X9.541 Y-20.828 E17.82609
G1 X10.71 Y-20.625 E17.87049
G1 X11.595 Y-20.453 E17.90422
G1 X12.386 Y-20.261 E17.93468
G1 X13.316 Y-20.008 E17.97074
G1 X14.247 Y-19.719 E18.00722
G1 X15.262 Y-19.356 E18.04755
G1 X16.253 Y-18.949 E18.08764
G1 X17.367 Y-18.423 E18.13374
G1 X18.494 Y-17.809 E18.18176
G1 X19.25 Y-17.334 E18.21516
G1 X20.819 Y-16.218 E18.28721
G1 X22.134 Y-14.427 E18.37035
G1 X22.548 Y-12.608 E18.44015
G1 X22.494 Y6.759 E19.16482
G1 X22.48 Y8.896 E19.24479
G1 X22.492 Y11.169 E19.32984
G1 X22.071 Y12.834 E19.3941
G1 X21.364 Y14.102 E19.44842
G1 X20.105 Y15.48 E19.51826
G1 X18.49 Y16.311 E19.58622
G1 X17.728 Y16.493 E19.61554
G1 X16.653 Y17.739 E19.67711
G1 X14.948 Y18.62 E19.74892
G1 X13.484 Y19.122 E19.80683
G1 X12.657 Y19.37 E19.83914
G1 X11.336 Y19.732 E19.89039
G1 X10.023 Y20.035 E19.94081
G1 X8.615 Y20.313 E19.99451
G1 X7.257 Y20.506 E20.04584
G1 X5.886 Y20.655 E20.09744
G1 X5.119 Y20.716 E20.12623
G1 X4.522 Y20.743 E20.14859
G1 X3.801 Y20.821 E20.17572
G1 X1.721 Y20.973 E20.25376
G1 X0.683 Y21.008 E20.29262
G1 X-.368 Y21.023 E20.33195
G1 X-1.415 Y21.017 E20.37113
G1 X-2.406 Y20.987 E20.40823
G1 X-4.637 Y20.856 E20.49185
G1 X-5.703 Y20.749 E20.53194
G1 X-6.756 Y20.622 E20.57162
G1 X-7.843 Y20.478 E20.61265
G1 X-8.906 Y20.314 E20.6529
G1 X-10 Y20.122 E20.69446
G1 X-11.161 Y19.897 E20.73871
G1 X-12.902 Y19.482 E20.80568
G1 X-14.841 Y18.719 E20.88364
G1 X-16.081 Y17.99 E20.93747
G1 X-16.97 Y16.969 E20.98812
G1 X-17.203 Y16.93 E20.99696
G1 X-18.901 Y16.331 E21.06433
G1 X-20.558 Y15.1 E21.14157
G1 X-21.722 Y13.233 E21.2239
G1 X-21.936 Y12.613 E21.24844
G1 X-22.133 Y10.834 E21.31541
G1 X-22.126 Y10.051 E21.34471
G1 X-22.163 Y9.951 E21.3487
G1 X-22.456 Y8.871 E21.39057
G1 X-22.446 Y3.784 E21.58092
G1 X-22.254 Y3.255 E21.60197
G1 X-22.215 Y-3.232 E21.84471
G1 X-22.357 Y-3.709 E21.86333
G1 X-22.537 Y-5.074 E21.91485
G1 X-22.533 Y-6.485 E21.96764
G1 X-22.542 Y-8.262 E22.03413
G1 X-22.413 Y-9.644 E22.08607
G1 X-22.334 Y-9.995 E22.09953
G1 X-22.392 Y-12.06 E22.17683
G1 X-21.907 Y-14.234 E22.26018
G1 X-20.573 Y-16.03 E22.34389
G1 X-18.826 Y-17.419 E22.4274
G1 X-17.453 Y-18.237 E22.4872
G1 X-15.987 Y-18.931 E22.54789
G1 X-15.135 Y-19.266 E22.58215
G1 X-14.256 Y-19.58 E22.61707
G1 X-13.402 Y-19.847 E22.65055
G1 X-12.517 Y-20.09 E22.68489
G1 X-11.653 Y-20.292 E22.71809
G1 X-10.835 Y-20.455 E22.7493
G1 X-10.025 Y-20.599 E22.78009
G1 X-8.352 Y-20.862 E22.84346
G1 X-7.079 Y-20.975 E22.89128
G1 X-6.412 Y-20.995 E22.91624
G1 X-5.65 Y-20.998 E22.94476
G1 X-4.199 Y-20.912 E22.99914
G1 X-2.709 Y-20.76 E23.05519
G1 X-1.472 Y-20.269 E23.10498
G1 X-1.238 Y-20.138 E23.11502
G1 X1.376 Y-20.122 E23.21283
M205 X100 Y100
G0 F3000 X1.456 Y-19.821
M205 X10 Y10
G1 F1500 X1.692 Y-19.957 E23.22302
G1 X2.954 Y-20.468 E23.27397
G1 X5.298 Y-20.687 E23.36206
G1 X6.145 Y-20.717 E23.39377
G1 X6.997 Y-20.723 E23.42565
G1 X7.949 Y-20.698 E23.46128
G1 X9.49 Y-20.532 E23.51928
G1 X10.653 Y-20.33 E23.56345
G1 X11.524 Y-20.161 E23.59665
G1 X12.315 Y-19.969 E23.6271
G1 X13.227 Y-19.721 E23.66247
G1 X14.158 Y-19.432 E23.69894
G1 X15.148 Y-19.078 E23.73828
G1 X16.139 Y-18.671 E23.77837
G1 X17.224 Y-18.159 E23.82326
G1 X18.334 Y-17.555 E23.87054
G1 X19.09 Y-17.08 E23.90395
G1 X20.606 Y-16.002 E23.97356
G1 X21.854 Y-14.301 E24.0525
G1 X22.248 Y-12.572 E24.11885
G1 X22.194 Y6.757 E24.8421
G1 X22.18 Y8.894 E24.92206
G1 X22.192 Y11.131 E25.00577
G1 X21.789 Y12.723 E25.06721
G1 X21.119 Y13.925 E25.11871
G1 X19.92 Y15.238 E25.18524
G1 X18.386 Y16.027 E25.24978
G1 X17.565 Y16.223 E25.28137
G1 X16.465 Y17.498 E25.34438
G1 X14.81 Y18.353 E25.41408
G1 X13.398 Y18.835 E25.4699
G1 X12.578 Y19.081 E25.50194
G1 X11.269 Y19.44 E25.55273
G1 X9.965 Y19.741 E25.6028
G1 X8.573 Y20.016 E25.65589
G1 X7.225 Y20.208 E25.70684
G1 X5.862 Y20.356 E25.75814
G1 X5.105 Y20.416 E25.78656
G1 X4.508 Y20.443 E25.80892
G1 X3.779 Y20.522 E25.83635
G1 X1.711 Y20.673 E25.91394
G1 X0.679 Y20.708 E25.95258
G1 X-.366 Y20.723 E25.99168
G1 X-1.406 Y20.717 E26.0306
G1 X-2.388 Y20.688 E26.06736
G1 X-4.607 Y20.557 E26.15053
G1 X-5.667 Y20.451 E26.19039
G1 X-6.717 Y20.325 E26.22996
G1 X-7.797 Y20.182 E26.27073
G1 X-8.854 Y20.019 E26.31075
G1 X-9.943 Y19.828 E26.35211
G1 X-11.091 Y19.605 E26.39587
G1 X-12.832 Y19.19 E26.46284
G1 X-14.689 Y18.46 E26.5375
G1 X-15.888 Y17.755 E26.58955
G1 X-16.817 Y16.688 E26.64248
G1 X-17.103 Y16.647 E26.6533
G1 X-18.758 Y16.063 E26.71896
G1 X-20.333 Y14.893 E26.79238
G1 X-21.449 Y13.103 E26.87131
G1 X-21.642 Y12.544 E26.89343
G1 X-21.833 Y10.836 E26.95774
G1 X-21.826 Y9.996 E26.98917
G1 X-21.873 Y9.872 E26.99414
G1 X-22.156 Y8.829 E27.03457
G1 X-22.146 Y3.837 E27.22136
G1 X-21.954 Y3.308 E27.24242
G1 X-21.915 Y-3.276 E27.48878
G1 X-22.069 Y-3.794 E27.509
G1 X-22.237 Y-5.073 E27.55727
G1 X-22.233 Y-6.484 E27.61007
G1 X-22.243 Y-8.235 E27.67559
G1 X-22.12 Y-9.578 E27.72605
G1 X-22.033 Y-9.965 E27.74089
G1 X-22.091 Y-12.031 E27.81823
G1 X-21.628 Y-14.106 E27.89778
G1 X-20.356 Y-15.819 E27.97761
G1 X-18.672 Y-17.161 E28.05819
G1 X-17.299 Y-17.979 E28.11799
G1 X-15.877 Y-18.652 E28.17685
G1 X-15.034 Y-18.984 E28.21075
G1 X-14.167 Y-19.294 E28.24521
G1 X-13.322 Y-19.558 E28.27833
G1 X-12.449 Y-19.798 E28.31221
G1 X-11.594 Y-19.998 E28.34507
G1 X-10.782 Y-20.16 E28.37605
G1 X-9.978 Y-20.303 E28.4066
G1 X-8.325 Y-20.563 E28.46921
G1 X-7.07 Y-20.675 E28.51636
G1 X-6.411 Y-20.695 E28.54103
G1 X-5.665 Y-20.698 E28.56894
G1 X-4.996 Y-20.665 E28.59401
G1 X-4.23 Y-20.614 E28.62273
G1 X-2.783 Y-20.466 E28.67716
G1 X-1.583 Y-19.99 E28.72546
G1 X-1.319 Y-19.838 E28.73686
G1 X1.456 Y-19.821 E28.8407
M205 X100 Y100
G0 F3000 X1.538 Y-19.52
M205 X10 Y10
G1 F1500 X1.805 Y-19.679 E28.85232
G1 X3.025 Y-20.173 E28.90157
G1 X5.309 Y-20.387 E28.98741
G1 X6.147 Y-20.417 E29.01879
G1 X6.989 Y-20.423 E29.05029
G1 X7.941 Y-20.398 E29.08593
G1 X9.439 Y-20.236 E29.14231
G1 X10.596 Y-20.035 E29.18625
G1 X11.453 Y-19.869 E29.21891
G1 X12.236 Y-19.679 E29.24906
G1 X13.138 Y-19.434 E29.28403
G1 X14.069 Y-19.145 E29.32051
G1 X15.034 Y-18.8 E29.35885
G1 X16.025 Y-18.393 E29.39894
G1 X17.081 Y-17.895 E29.44263
G1 X18.174 Y-17.301 E29.48917
G1 X18.93 Y-16.826 E29.52258
G1 X20.391 Y-15.787 E29.58966
G1 X21.575 Y-14.174 E29.66453
G1 X21.948 Y-12.536 E29.72739
G1 X21.894 Y6.755 E30.44922
G1 X21.88 Y8.892 E30.52918
G1 X21.892 Y11.093 E30.61154
G1 X21.507 Y12.612 E30.67017
G1 X20.874 Y13.748 E30.71883
G1 X19.735 Y14.996 E30.78205
G1 X18.282 Y15.743 E30.84319
G1 X17.402 Y15.953 E30.87704
G1 X16.277 Y17.257 E30.94148
G1 X14.672 Y18.086 E31.00907
G1 X13.312 Y18.548 E31.06282
G1 X12.499 Y18.792 E31.09458
G1 X11.202 Y19.148 E31.1449
G1 X9.907 Y19.447 E31.19463
G1 X8.531 Y19.719 E31.24712
G1 X7.193 Y19.91 E31.29769
G1 X5.838 Y20.057 E31.34869
G1 X5.091 Y20.116 E31.37673
G1 X4.494 Y20.143 E31.39909
G1 X3.757 Y20.223 E31.42683
G1 X1.701 Y20.373 E31.50396
G1 X0.675 Y20.408 E31.54237
G1 X-.364 Y20.423 E31.58126
G1 X-1.397 Y20.417 E31.61991
G1 X-2.37 Y20.389 E31.65633
G1 X-4.577 Y20.258 E31.73906
G1 X-5.631 Y20.153 E31.77869
G1 X-6.678 Y20.028 E31.81814
G1 X-7.751 Y19.886 E31.85864
G1 X-8.802 Y19.724 E31.89843
G1 X-9.886 Y19.533 E31.93962
